X: 17
M:9/8
L:1/8
K:G
v(g2d) d2c (Bc)d | e2A ABG FED | (g2d) d2c (Bc)d | efg fef g3  |
 (g2d) d2c (Bc)d | e2A ABG FED | (g2d) d2c (Bc)d | efg fef g3  |]


